X:1
T:Velum templi - Croce
T:#
%%score [ 1 2 3 4 ]
L:1/8
Q:1/4=200
M:none
K:C
V:1 treble nm="Soprano" snm="S"
V:2 alto nm="Alto" snm="A"
V:3 tenor nm="Tenor" snm="T"
V:4 bass nm="Bass" snm="B"
V:1
"^Velum templi""^Giovanni Croce\n(1557-1609)" z16 | z16 | z16 | z8 E8- |[M:4/2] E4 E4 E8 | %5
w: |||Ve\-|* lum tem-|
 E8 z4 (E4- | E4 D2 C2 D4) D4 | E16 | z4 E4 E4 E4 | F8 E8 | z8 G8 | G4 G4 F8 | F8 E8- | E4 E4 E8 | %14
w: pli scis\-|* * * * sum|est,|et om- nis|ter- ra,|et|om- nis ter-|ra tre\-|* mu- it:|
 ^F8 F4 F4 | G8 G8- | G4 G4 F4 E4 | E8 E8 | z4 E4 E6 E2 | E4 E4 E4 E4 | %20
w: la- tro de|cru- ce|* cla- ma- bat|di- cens:|Me- men- to|me- i, Do- mi-|
 ^F4[Q:1/4=198] F4[Q:1/4=195] G6[Q:1/4=193] G2 |[Q:1/4=190] G8[Q:1/4=185] F8 | %22
w: ne, dum ve- ne-|ris in|
[Q:1/4=182] F4[Q:1/4=179] F4[Q:1/4=176] (D8- | %23
w: re- gnum tu\-|
[Q:1/4=173] D4[Q:1/4=171] ^C2[Q:1/4=170] B,2)[Q:1/4=170] C8 |] %24
w: * * * um.|
V:2
 E12 E4 | E8 A,4 (E4- | E4 D2 C2 B,6 A,2 | B,4) C4 B,8 |[M:4/2] (C12 B,2 A,2 | B,4) B,4 A,8 | %6
w: Ve- lum|tem- pli scis\-||* sum est,|ve\- * *|* lum tem-|
 C8 (A,8 | B,4) C4 B,8 | z4 ^C4 C4 C4 | D8 =C8 | (E12 D2 C2 | D12 C2 B,2) | (C12 B,2 A,2 | %13
w: pli scis\-|* sum est,|et om- nis|ter- ra|tre\- * *|||
 B,4) B,4 ^C8 | D8 D4 D4 | E8 D8 | E8 D4 B,4 | C8 B,8 | z4 C4 C6 C2 | C4 A,4 B,4 C4 | D4 D4 D6 D2 | %21
w: * mu- it:|la- tro de|cru- ce|cla- ma- bat|di- cens:|Me- men- to|me- i, Do- mi-|ne, dum ve- ne-|
 E8 C8 | D4 D4 A,8 | A,16 |] %24
w: ris in|re- gnum tu-|um.|
V:3
 z8 A,8- | A,4 A,4 A,8 | E,4 (A,8 ^G,2 ^F,2 | ^G,4) A,4 G,8 |[M:4/2] A,8 E,8- | E,8 C8 | A,16 | %7
w: Ve\-|* lum tem-|pli scis\- * *|* sum est,|ve- lum|* tem-|pli|
 ^G,4 A,4 G,8 | z4 A,4 A,4 A,4 | A,8 A,4 (C4- | C4 B,2 A,2 B,8- | B,4 A,2 G,2 A,8-) | %12
w: scis- sum est,|et om- nis|ter- ra tre\-|||
 (A,4 G,2 F,2 ^G,4 A,4- | A,4) ^G,4 A,8 | A,8 A,4 A,4 | C8 B,4 G,4 | (C6 B,2 A,4) ^G,4 | A,8 ^G,8 | %18
w: |* mu- it:|la- tro de|cru- ce cla-|ma\- * * bat|di- cens:|
 z4 A,4 A,6 A,2 | A,4 C4 B,4 A,4 | A,4 A,4 B,6 B,2 | C8"^in" A,8 | A,4 A,4 F,8 | E,16 |] %24
w: Me- men- to|me- i, Do- mi-|ne, dum ve- ne-|ris *|re- gnum tu-|um.|
V:4
 z16 | z16 | z8 E,8- | E,4 E,4 E,8 |[M:4/2] A,,4 (A,8 ^G,2 ^F,2 | ^G,4) G,4 A,8 | F,12 F,4 | E,16 | %8
w: ||Ve\-|* lum tem-|pli scis\- * *|* sum est,|scis- sum|est,|
 z4 A,,4 A,,4 A,,4 | D,8 A,,4 (A,4- | A,4 G,2 F,2 G,8- | G,4 F,2 E,2 F,8-) | (F,4 E,2 D,2 E,8- | %13
w: et om- nis|ter- ra tre\-||||
 E,4) E,4 A,,8 | D,8 D,4 D,4 | C,8 G,8 | z4 C,4 D,4 E,4 | A,,8 E,8 | z4 A,,4 A,,6 A,,2 | %19
w: * mu- it:|la- tro de|cru- ce|cla- ma- bat|di- cens:|Me- men- to|
 A,,4 A,4 ^G,4 A,4 | D,4 D,4 G,6 G,2 | C,8 F,8 | D,4 D,4 D,8 | A,,16 |] %24
w: me- i, Do- mi-|ne, dum ve- ne-|ris in|re- gnum tu-|um.|

